Default.style/bike_parking.svg

<svg xmlns="http://www.w3.org/2000/svg" width="27" height="33" viewBox="0 0 27 33">
  <path fill="gray" d="M5.30505531 33C6.03793474 33 6.72361984 32.8603778 7.36211061 32.5811335 8.00061276 32.3018869 8.56276595 31.915457 9.04857019 31.4218439 9.5343858 30.9282322 9.91470921 30.3556422 10.1895404 29.7040737 10.4643716 29.0525113 10.6017872 28.3572253 10.6017872 27.6182157 10.6017872 26.873568 10.4657589 26.1754572 10.1937021 25.5238833 9.92164537 24.8723209 9.54271488 24.2997315 9.05691064 23.8061148 8.57109503 23.3124982 8.00754892 22.9274831 7.36627231 22.6510693 6.72500708 22.374644 6.03793474 22.2364314 5.30505531 22.2364314 4.57217588 22.2364314 3.88509786 22.374644 3.24382126 22.6510693 2.60255602 22.9274831 2.0390156 23.3124982 1.55319998 23.8061148 1.06739574 24.2997315.687078019 24.8723209.412246811 25.5238833.137415604 26.1754572 0 26.873568 0 27.6182157 0 28.3628633.137415604 29.05956.412246811 29.7083057.687078019 30.3570528 1.06739574 30.9282322 1.55319998 31.4218439 2.0390156 31.915457 2.60255602 32.3018869 3.24382126 32.5811335 3.88509786 32.8603778 4.57217588 33 5.30505531 33zM5.30505531 31.6714706C4.74984397 31.6714706 4.23210495 31.567107 3.75183827 31.3583796 3.27158296 31.1496523 2.84823829 30.8605368 2.48180426 30.4910331 2.11535886 30.1215295 1.82942411 29.6913817 1.62400001 29.2005899 1.41856453 28.7098004 1.31584679 28.1823423 1.31584679 27.6182157 1.31584679 27.054089 1.41856453 26.5280364 1.62400001 26.0400578 1.82942411 25.5520908 2.11535886 25.1219425 2.48180426 24.7496129 2.84823829 24.3772948 3.27297588 24.0867687 3.75601703 23.8780344 4.2390468 23.6693117 4.7553929 23.5649503 5.30505531 23.5649503 5.85471773 23.5649503 6.37106382 23.6693117 6.8540936 23.8780344 7.33713475 24.0867687 7.76187233 24.3772948 8.12830636 24.7496129 8.49475176 25.1219425 8.78068652 25.5535003 8.98611062 26.0442863 9.19154609 26.5350839 9.29426383 27.059727 9.29426383 27.6182157 9.29426383 28.1767043 9.19154609 28.7013416 8.98611062 29.1921277 8.78068652 29.6829195 8.49475176 30.1144777 8.12830636 30.4868022 7.76187233 30.8591265 7.33713475 31.1496523 6.8540936 31.3583796 6.37106382 31.567107 5.85471773 31.6714706 5.30505531 31.6714706zM21.7032169 33C22.4361759 33 23.1218895 32.8603778 23.7603575 32.5811335 24.3988255 32.3018869 24.9609958 31.915457 25.4468682 31.4218439 25.932627 30.9282322 26.312922 30.3570528 26.5877532 29.7083057 26.8625844 29.05956 27 28.3628633 27 27.6182157 27 26.873568 26.8625844 26.1754572 26.5877532 25.5238833 26.312922 24.8723209 25.932627 24.301141 25.4468682 23.8103434 24.9609958 23.3195573 24.3988255 22.9345422 23.7603575 22.6552978 23.1218895 22.3760535 22.4361759 22.2364314 21.7032169 22.2364314 20.9703716 22.2364314 20.2832936 22.3760535 19.6419829 22.6552978 19.0007858 22.9345422 18.4358866 23.3195573 17.9472852 23.8103434 17.4586837 24.301141 17.0769674 24.8723209 16.8021362 25.5238833 16.527305 26.1754572 16.3898894 26.873568 16.3898894 27.6182157 16.3898894 28.3628633 16.527305 29.0609701 16.8021362 29.7125359 17.0769674 30.3641042 17.4586837 30.9366942 17.9472852 31.4303061 18.4358866 31.9239181 19.0007858 32.3089367 19.6419829 32.585362 20.2832936 32.8617873 20.9703716 33 21.7032169 33zM21.7032169 31.6714706C20.9647999 31.6714706 20.2930156 31.4909496 19.6878639 31.1299076 19.0827122 30.7688661 18.6010469 30.2808956 18.242868 29.6659962 17.8848029 29.0510949 17.7057703 28.3685014 17.7057703 27.6182157 17.7057703 27.059727 17.8098696 26.5350839 18.0180681 26.0442863 18.2262667 25.5535003 18.5121844 25.1219425 18.8758212 24.7496129 19.239458 24.3772948 19.6642127 24.0867687 20.1500852 23.8780344 20.6358439 23.6693117 21.1535545 23.5649503 21.7032169 23.5649503 22.2528793 23.5649503 22.7692254 23.670727 23.2522552 23.8822803 23.735285 24.093822 24.1586751 24.3857576 24.5224257 24.7580873 24.8860625 25.1304053 25.1719802 25.5605536 25.3801787 26.0485322 25.5883773 26.5364992 25.6924766 27.059727 25.6924766 27.6182157 25.6924766 28.1767043 25.5883773 28.7013416 25.3801787 29.1921277 25.1719802 29.6829195 24.8860625 30.1144777 24.5224257 30.4868022 24.1586751 30.8591265 23.735285 31.1496523 23.2522552 31.3583796 22.7692254 31.567107 22.2528793 31.6714706 21.7032169 31.6714706zM14.1995574 16.6600136C14.1995574 16.8405462 14.2634099 16.994275 14.3911149 17.1212 14.5188085 17.248125 14.6714893 17.3115876 14.8491574 17.3115876L17.0061276 17.3115876C17.0561589 17.3115876 17.0922611 17.3313322 17.114434 17.3708216L21.0786212 27.8636087 22.2861956 27.4405137 18.1388256 16.5669341C17.994417 16.188978 17.6918411 16 17.231098 16L14.8491574 16C14.6714893 16 14.5188085 16.0634625 14.3911149 16.1903876 14.2634099 16.3173126 14.1995574 16.4738546 14.1995574 16.6600136zM19.404732 21.7964049L19.404732 20.5778969 10.5684766 21.8979588 10.5684766 23.1164669 19.404732 21.7964049zM12.5755574 28.3882403L12.5755574 27.1697322 5.38834043 27.1697322 5.38834043 28.3882403 12.5755574 28.3882403zM13.4916595 29.4205997C13.8136908 29.4205997 14.1065674 29.3402115 14.3702893 29.1794352 14.6340113 29.0186589 14.84499 28.8056984 15.0032255 28.5405538 15.1615064 28.2754161 15.2406469 27.9792519 15.2406469 27.6520612 15.2406469 27.3248705 15.1615064 27.027291 15.0032255 26.7593228 14.84499 26.4913661 14.6340113 26.2784091 14.3702893 26.1204518 14.1065674 25.9624944 13.8136908 25.8835158 13.4916595 25.8835158 13.1696397 25.8835158 12.8767688 25.9624944 12.6130468 26.1204518 12.3493135 26.2784091 12.1383291 26.4913661 11.9800936 26.7593228 11.8218581 27.027291 11.7427404 27.3248705 11.7427404 27.6520612 11.7371915 27.9736139 11.8121475 28.2683685 11.9676085 28.5363252 12.1230695 28.8042889 12.3340482 29.0186589 12.6005447 29.1794352 12.8670525 29.3402115 13.1640908 29.4205997 13.4916595 29.4205997zM13.5 28.2613152C13.3278808 28.2613152 13.1835234 28.2020812 13.0669276 28.0836132 12.9503319 27.9651453 12.892034 27.8241136 12.892034 27.6605182 12.892034 27.4912849 12.9503319 27.3460247 13.0669276 27.2247377 13.1835234 27.1034507 13.3278808 27.0428072 13.5 27.0428072 13.6665589 27.0428072 13.8067489 27.1020412 13.9205702 27.2205092 14.0343915 27.3389656 14.0913021 27.4856353 14.0913021 27.6605182 14.0913021 27.8241136 14.0343915 27.9651453 13.9205702 28.0836132 13.8067489 28.2020812 13.6665589 28.2613152 13.5 28.2613152zM5.30505531 28.7182557C5.60486807 28.7182557 5.86165389 28.6110754 6.07541276 28.3967146 6.28917163 28.1823423 6.39605106 27.9228427 6.39605106 27.6182157 6.39605106 27.3079391 6.29055886 27.0456204 6.07957446 26.8312597 5.86859005 26.6168874 5.610417 26.5097012 5.30505531 26.5097012 4.99968225 26.5097012 4.74289644 26.6154721 4.53469787 26.8270138 4.32648793 27.0385671 4.22238296 27.3023011 4.22238296 27.6182157 4.21683403 27.9228427 4.31955176 28.1823423 4.53053617 28.3967146 4.7415092 28.6110754 4.99968225 28.7182557 5.30505531 28.7182557zM21.7032169 28.7267301C22.0030638 28.7267301 22.258451 28.6181345 22.4693786 28.4009432 22.6804198 28.1837519 22.7859404 27.9228427 22.7859404 27.6182157 22.7859404 27.3079391 22.6818412 27.0470299 22.4736426 26.8354882 22.265444 26.6239349 22.0086355 26.5181583 21.7032169 26.5181583 21.4034837 26.5181583 21.1480965 26.6225254 20.9370553 26.8312597 20.7261277 27.0399824 20.6178781 27.3023011 20.6123064 27.6182157 20.6067348 27.9228427 20.7108341 28.1837519 20.9246043 28.4009432 21.1383745 28.6181345 21.3979121 28.7267301 21.7032169 28.7267301zM13.2085106 26.3235422L14.2828425 26.9412533 19.4628934 21.2971619 17.9556427 21.2463849 13.2085106 26.3235422zM4.81368509 27.1951207L5.8796936 27.8128318 10.8349787 22.6679834 9.785617 21.9487184 4.81368509 27.1951207zM12.3340425 27.1104982L13.400051 26.3319993 9.72731913 19.257835 8.4780936 19.5286164 12.3340425 27.1104982zM6.92071487 19.08859C6.92071487 19.269111 6.98318012 19.4228398 7.10811063 19.5497764 7.23302978 19.6767014 7.38709785 19.7401639 7.57031487 19.7401639L10.8433021 19.7401639C11.0265191 19.7401639 11.1805929 19.6767014 11.3055234 19.5497764 11.4304425 19.4228398 11.4929021 19.269111 11.4929021 19.08859 11.4929021 18.908069 11.4290496 18.7529365 11.3013447 18.6231925 11.173651 18.4934369 11.0209702 18.428559 10.8433021 18.428559L7.57031487 18.428559C7.39264678 18.428559 7.23996594 18.4934369 7.11227233 18.6231925 6.98456736 18.7529365 6.92071487 18.908069 6.92071487 19.08859zM14.5454545 4.54545455C14.5454545 2.03454545 12.5109091 0 10 0L0 0 0 20 3.63636364 20 3.63636364 11.8181818 10 11.8181818C12.5109091 11.8181818 14.5454545 9.78363636 14.5454545 7.27272727L14.5454545 4.54545455 14.5454545 4.54545455zM8.18181818 9.09090909L3.63636364 9.09090909 3.63636364 2.72727273 8.18181818 2.72727273C9.68727273 2.72727273 10.9090909 3.94818182 10.9090909 5.45454545L10.9090909 6.36363636C10.9090909 7.87090909 9.68727273 9.09090909 8.18181818 9.09090909L8.18181818 9.09090909z"/>
</svg>

<svg xmlns="http://www.w3.org/2000/svg" width="27" height="33"><path fill="gray" d="M5.305 33c.733 0 1.419-.14 2.057-.419.639-.28 1.2-.666 1.687-1.16a5.436 5.436 0 0 0 1.14-1.717 5.311 5.311 0 0 0 .413-2.086 5.38 5.38 0 0 0-1.545-3.812 5.283 5.283 0 0 0-1.69-1.155 5.15 5.15 0 0 0-2.062-.415c-.733 0-1.42.139-2.061.415a5.283 5.283 0 0 0-1.69 1.155 5.436 5.436 0 0 0-1.142 1.718A5.333 5.333 0 0 0 0 27.618c0 .745.137 1.442.412 2.09a5.45 5.45 0 0 0 1.141 1.714c.486.493 1.05.88 1.69 1.16.642.278 1.33.418 2.062.418zm0-1.329a3.854 3.854 0 0 1-1.553-.313 4.04 4.04 0 0 1-2.128-2.157 4.056 4.056 0 0 1-.308-1.583 4.025 4.025 0 0 1 1.166-2.868 3.993 3.993 0 0 1 1.274-.872c.483-.209 1-.313 1.55-.313.549 0 1.065.104 1.548.313.483.209.908.5 1.274.872a4.064 4.064 0 0 1 1.166 2.868 4.064 4.064 0 0 1-1.166 2.869 3.993 3.993 0 0 1-1.274.871c-.483.21-1 .313-1.549.313zM21.703 33c.733 0 1.419-.14 2.057-.419.639-.28 1.201-.666 1.687-1.16a5.45 5.45 0 0 0 1.14-1.713 5.302 5.302 0 0 0 .413-2.09c0-.744-.137-1.443-.412-2.094a5.387 5.387 0 0 0-2.828-2.869 5.077 5.077 0 0 0-2.057-.419c-.733 0-1.42.14-2.061.42a5.426 5.426 0 0 0-1.695 1.154 5.352 5.352 0 0 0-1.557 3.808c0 .745.137 1.443.412 2.095a5.401 5.401 0 0 0 2.84 2.872 5.151 5.151 0 0 0 2.061.415zm0-1.329c-.738 0-1.41-.18-2.015-.541a4.05 4.05 0 0 1-1.982-3.512c0-.558.104-1.083.312-1.574a4.16 4.16 0 0 1 .858-1.294 3.932 3.932 0 0 1 2.827-1.185c.55 0 1.066.106 1.55.317.482.212.906.504 1.27.876.363.372.649.803.857 1.29.208.488.312 1.012.312 1.57 0 .559-.104 1.083-.312 1.574a4.16 4.16 0 0 1-.858 1.295 3.946 3.946 0 0 1-1.27.871c-.483.21-1 .313-1.549.313zM14.2 16.66c0 .18.063.334.191.461s.28.19.458.19h2.157c.05 0 .086.02.108.06l3.965 10.493 1.207-.423-4.147-10.874c-.145-.378-.447-.567-.908-.567H14.85a.627.627 0 0 0-.458.19.636.636 0 0 0-.191.47zm5.205 5.136v-1.218l-8.837 1.32v1.218l8.837-1.32zm-6.83 6.592V27.17H5.389v1.218h7.188zm.917 1.033c.322 0 .615-.08.878-.242.264-.16.475-.373.633-.638a1.7 1.7 0 0 0 .238-.889c0-.327-.08-.625-.238-.893a1.798 1.798 0 0 0-.633-.639 1.677 1.677 0 0 0-.878-.236c-.322 0-.615.078-.879.236-.264.158-.475.371-.633.64a1.723 1.723 0 0 0-.237.892c-.006.322.07.616.225.884s.366.483.633.643c.266.161.563.242.89.242zm.008-1.16a.583.583 0 0 1-.433-.177.582.582 0 0 1-.175-.423c0-.17.058-.315.175-.436a.577.577 0 0 1 .433-.182.56.56 0 0 1 .42.178.61.61 0 0 1 .171.44.59.59 0 0 1-.17.423.56.56 0 0 1-.421.177zm-8.195.457c.3 0 .557-.107.77-.321.214-.215.321-.474.321-.779 0-.31-.105-.572-.316-.787a1.045 1.045 0 0 0-.775-.321c-.305 0-.562.105-.77.317a1.083 1.083 0 0 0-.313.791 1.04 1.04 0 0 0 .309.779c.21.214.469.321.774.321zm16.398.009c.3 0 .555-.109.766-.326.211-.217.317-.478.317-.783 0-.31-.104-.571-.312-.783a1.038 1.038 0 0 0-.77-.317c-.3 0-.556.105-.767.313a1.09 1.09 0 0 0-.325.787c-.005.305.099.566.313.783.213.217.473.326.778.326zm-8.494-2.403 1.074.617 5.18-5.644-1.507-.05-4.747 5.077zm-8.395.871 1.066.618 4.955-5.145-1.05-.72-4.971 5.247zm7.52-.085 1.066-.778-3.673-7.074-1.249.27 3.856 7.582zM6.921 19.09c0 .18.062.334.187.46.125.128.28.191.462.191h3.273a.623.623 0 0 0 .463-.19.633.633 0 0 0 .187-.461.64.64 0 0 0-.192-.466.62.62 0 0 0-.458-.194H7.57a.62.62 0 0 0-.458.194.64.64 0 0 0-.191.466zm7.624-14.544A4.545 4.545 0 0 0 10 0H0v20h3.636v-8.182H10a4.545 4.545 0 0 0 4.545-4.545V4.545zM8.182 9.091H3.636V2.727h4.546a2.728 2.728 0 0 1 2.727 2.728v.909A2.727 2.727 0 0 1 8.182 9.09z"/></svg>
